resources/haticons/SVG/explicit.svg

<!-- Generated by IcoMoon.io -->
<svg version="1.1" xmlns="http://www.w3.org/2000/svg" width="24" height="24" viewBox="0 0 24 24">
<title>explicit</title>
<path d="M15 9v-2.016h-6v10.031h6v-2.016h-3.984v-2.016h3.984v-1.969h-3.984v-2.016h3.984zM18.984 3q0.797 0 1.406 0.609t0.609 1.406v13.969q0 0.797-0.609 1.406t-1.406 0.609h-13.969q-0.797 0-1.406-0.609t-0.609-1.406v-13.969q0-0.797 0.609-1.406t1.406-0.609h13.969z"></path>
</svg>

<svg xmlns="http://www.w3.org/2000/svg" width="24" height="24"><path d="M15 9V6.984H9v10.031h6v-2.016h-3.984v-2.016H15v-1.969h-3.984V8.998H15zm3.984-6q.797 0 1.406.609t.609 1.406v13.969q0 .797-.609 1.406t-1.406.609H5.015q-.797 0-1.406-.609T3 18.984V5.015q0-.797.609-1.406T5.015 3h13.969z"/></svg>
